X: 2
P: Green Grow the Rashes O!
C: Athole Collection
C: arr. T. Traub 11/2/96
R: Strathspey
M: 4/4
K: G
L: 1/8
|: D/|"G"G2 B>A B<GG>B|"Am"A/A/A e>d e<AA>B|"C"c>Bc>e "G"d<BG>B|"Am"A/B/c "B7"B>A "Em"G<E E3 :|
D/|"G"G2 g>f g<dd>g|"Am"e<aa>^g a<ee>f|"C"g>ag>e "G"d>c B<G|"Am"A/B/c "B7"B>A "Em"G<EE>D|
"G"G<gg>f g<dd>g|"Am"e<aa>^g a<ee>f|"G"g<b"C"e<g "G"d<g"Em"B>G|"Am"A/B/c "B7"B>A "Em"G<E E3 |]

